X:19044
T:Shoes and Stockings
R:March
C:Trad.
O:USA
Z:Paul Hardy's Session Tunebook 2015 (see www.paulhardy.net). Creative Commons cc by-nc-sa licenced.
M:2/2
L:1/8
Q:1/4=160
K:G
D2|"G"G2G2 B2B2|"C"cBc2 "D"d4|"G"G2G2 BAGB|"D"ABAG FEDF|"G"G2G2 B2B2|"C"cBc2 "D"d4|"G"dedc "D"BGAF|"G"G4 G2:|
|:d2|"G"g2g2 "D"a2a2|"G"bab2 d4|"C"c2c2 "G"B2B2|"D"ABc2 d2g2-|"G"g2g2 "D"a2a2|"G"bab2 d4|"C"cBAc "G"BAGB|"D"AGF2 "G"G2:|

